X:1
T: Lord Byron's Favourite Strathspey
C:
R:Strathspey
Q: 128
K:G
M:4/4
L:1/16
|:c2|BE3 B3A G3E E3e|BE3 B3d e4 e3g|GE3 B3A G3A B3e|d3B G3B A4 A3c|
BE3 B3A G3E E3e|BE3 B3d e4 e3g|GE3 B3A G3A B3e|d3B G3B A4 A2c2|
Be3 e3f g3B B3A|Be3 e3f g4 f3e|Be3 e3f g3e B3g|d3B G3B A4 A3c|
Be3 e3f g3B B3A|Be3 e3f g4 f3a|e3g f3e d3B G3B|dB3 g3B A4 A2:|
